images/ppt.svg

<svg height="250" viewBox="0 0 250 250" width="250" xmlns="http://www.w3.org/2000/svg"><path d="m250 125c0 69.035156-55.964844 125-125 125s-125-55.964844-125-125 55.964844-125 125-125 125 55.964844 125 125zm0 0" fill="#152743"/><path d="m125.382812 64.96875c-10.28125 0-18.617187-5.726562-18.617187-12.796875s8.335937-12.796875 18.617187-12.796875 18.609376 5.726562 18.609376 12.796875-8.328126 12.796875-18.609376 12.796875zm-9.632812 142.84375v-136.6875h41.5c1.539062 0 2.625 1.148438 2.625 2.6875v75.84375c0 1.53125-1.09375 2.84375-2.625 2.84375h-22.875v55.3125c0 1.539062-1.171875 2.9375-2.710938 2.9375h-13.03125c-1.585937-.0625-2.847656-1.34375-2.882812-2.929688zm-7-55.320312h-15.703125c-1.578125-.015626-2.863281-1.269532-2.921875-2.84375v-75.835938c0-1.539062 1.382812-2.6875 2.914062-2.6875h15.710938v81.375zm0 0" fill="#fff"/></svg>

<svg xmlns="http://www.w3.org/2000/svg" xmlns:xlink="http://www.w3.org/1999/xlink" width="250px" height="250px" viewBox="0 0 250 250" version="1.1">
<g id="surface1">
<path style=" stroke:none;fill-rule:nonzero;fill:rgb(8.235294%,15.294118%,26.274511%);fill-opacity:1;" d="M 250 125 C 250 194.035156 194.035156 250 125 250 C 55.964844 250 0 194.035156 0 125 C 0 55.964844 55.964844 0 125 0 C 194.035156 0 250 55.964844 250 125 Z M 250 125 "/>
<path style=" stroke:none;fill-rule:nonzero;fill:rgb(100%,100%,100%);fill-opacity:1;" d="M 125.382812 64.96875 C 115.101562 64.96875 106.765625 59.242188 106.765625 52.171875 C 106.765625 45.101562 115.101562 39.375 125.382812 39.375 C 135.664062 39.375 143.992188 45.101562 143.992188 52.171875 C 143.992188 59.242188 135.664062 64.96875 125.382812 64.96875 Z M 115.75 207.8125 L 115.75 71.125 L 157.25 71.125 C 158.789062 71.125 159.875 72.273438 159.875 73.8125 L 159.875 149.65625 C 159.875 151.1875 158.78125 152.5 157.25 152.5 L 134.375 152.5 L 134.375 207.8125 C 134.375 209.351562 133.203125 210.75 131.664062 210.75 L 118.632812 210.75 C 117.046875 210.6875 115.785156 209.40625 115.75 207.820312 Z M 108.75 152.492188 L 93.046875 152.492188 C 91.46875 152.476562 90.183594 151.222656 90.125 149.648438 L 90.125 73.8125 C 90.125 72.273438 91.507812 71.125 93.039062 71.125 L 108.75 71.125 L 108.75 152.5 Z M 108.75 152.492188 "/>
</g>
</svg>
